src/status/24/notification-new-20-symbolic.svg

<?xml version="1.0" encoding="UTF-8" standalone="no"?>
<svg
   xmlns:dc="http://purl.org/dc/elements/1.1/"
   xmlns:cc="http://creativecommons.org/ns#"
   xmlns:rdf="http://www.w3.org/1999/02/22-rdf-syntax-ns#"
   xmlns:svg="http://www.w3.org/2000/svg"
   xmlns="http://www.w3.org/2000/svg"
   id="svg8"
   version="1.1"
   width="24"
   height="24">
  <metadata
     id="metadata14">
    <rdf:RDF>
      <cc:Work
         rdf:about="">
        <dc:format>image/svg+xml</dc:format>
        <dc:type
           rdf:resource="http://purl.org/dc/dcmitype/StillImage" />
        <dc:title />
      </cc:Work>
    </rdf:RDF>
  </metadata>
  <defs
     id="defs12" />
  <path
     id="path2-3-5-2-2-5-8"
     d="M 12.861328 5.0097656 C 12.475354 5.0635073 12.138455 5.3401348 12.03125 5.7402344 L 12.029297 5.75 C 10.207387 5.733905 8.5711563 7.0687258 8.0976562 8.828125 C 8.0976562 8.828125 6.8051856 13.657925 5.0410156 13.828125 C 5.0227156 13.834625 5.0098344 13.852185 4.9902344 13.859375 C 4.9166344 13.890775 4.8485525 13.934708 4.7890625 13.988281 C 4.7646625 14.009701 4.73955 14.023455 4.71875 14.046875 C 4.63935 14.132215 4.5808381 14.235556 4.5488281 14.347656 C 4.4411581 14.749481 4.6792081 15.158216 5.0800781 15.265625 L 15.220703 17.984375 C 15.622523 18.092044 16.032955 17.85495 16.140625 17.453125 C 16.168825 17.340016 16.169078 17.222975 16.142578 17.109375 C 16.136578 17.078705 16.122981 17.050994 16.113281 17.021484 C 16.088281 16.945184 16.050483 16.874569 16.001953 16.810547 C 15.989653 16.794817 15.988209 16.772842 15.974609 16.757812 C 14.531619 15.729308 15.826172 10.898438 15.826172 10.898438 C 16.296072 9.1370369 15.548037 7.16389 13.960938 6.2675781 L 13.962891 6.2578125 C 14.105821 5.7243472 13.789329 5.1761437 13.255859 5.0332031 C 13.122494 4.997468 12.989986 4.9918517 12.861328 5.0097656 z M 8.8652344 17.318359 C 8.8756344 18.277378 9.5658556 19.093785 10.509766 19.263672 C 11.330926 19.410734 12.157061 19.032317 12.582031 18.314453 L 8.8652344 17.318359 z "
     style="color:#bebebe;overflow:visible;isolation:auto;mix-blend-mode:normal;fill:#ffffff;marker:none" />
</svg>

<?xml version="1.0" encoding="UTF-8"?>
<svg id="svg8" width="24" height="24" version="1.1" xmlns="http://www.w3.org/2000/svg" xmlns:cc="http://creativecommons.org/ns#" xmlns:dc="http://purl.org/dc/elements/1.1/" xmlns:rdf="http://www.w3.org/1999/02/22-rdf-syntax-ns#">
 <metadata id="metadata14">
  <rdf:RDF>
   <cc:Work rdf:about="">
    <dc:format>image/svg+xml</dc:format>
    <dc:type rdf:resource="http://purl.org/dc/dcmitype/StillImage"/>
    <dc:title/>
   </cc:Work>
  </rdf:RDF>
 </metadata>
 <path id="path2-3-5-2-2-5-8" d="m12.861 5.0098c-0.38597 0.053742-0.72287 0.33037-0.83008 0.73047l-0.001953 0.0097656c-1.8219-0.016095-3.4581 1.3187-3.9316 3.0781 0 0-1.2925 4.8298-3.0566 5-0.0183 0.0065-0.031181 0.02406-0.050781 0.03125-0.0736 0.0314-0.14168 0.075333-0.20117 0.12891-0.0244 0.02142-0.049512 0.035174-0.070312 0.058594-0.0794 0.08534-0.13791 0.18868-0.16992 0.30078-0.10767 0.40182 0.13038 0.81056 0.53125 0.91797l10.141 2.7188c0.40182 0.10767 0.81225-0.12942 0.91992-0.53125 0.0282-0.11311 0.028453-0.23015 0.001953-0.34375-6e-3 -0.03067-0.019597-0.058381-0.029297-0.087891-0.025-0.0763-0.062798-0.14692-0.11133-0.21094-0.0123-0.01573-0.013744-0.037705-0.027344-0.052735-1.443-1.0285-0.14844-5.8594-0.14844-5.8594 0.4699-1.7614-0.27814-3.7345-1.8652-4.6309l0.001953-0.0097656c0.14293-0.53347-0.17356-1.0817-0.70703-1.2246-0.13336-0.035735-0.26587-0.041351-0.39453-0.023438zm-3.9961 12.309c0.0104 0.95902 0.70062 1.7754 1.6445 1.9453 0.82116 0.14706 1.6473-0.23136 2.0723-0.94922l-3.7168-0.99609z" color="#bebebe" fill="#fff" style="isolation:auto;mix-blend-mode:normal"/>
</svg>
